fs/flash_checkmark_16_regular.svg

<svg viewBox="0 0 16 16" fill="none" xmlns="http://www.w3.org/2000/svg" height="1em" width="1em">
  <path d="M2.91056 1.71442C3.03687 1.29055 3.42663 1 3.86892 1H8.27468C8.97289 1 9.45617 1.69737 9.21101 2.35112L8.21769 5H10.2472C10.2707 5 10.2939 5.00102 10.3167 5.00301C9.22077 5.03899 8.206 5.39557 7.36311 5.98197C7.25158 5.95117 7.1527 5.88217 7.08522 5.7848C6.99181 5.65001 6.97044 5.47799 7.02802 5.32444L8.27468 2H3.86892L2.08097 8H3.99619C4.15357 8 4.30177 8.0741 4.3962 8.20001C4.49062 8.32593 4.52025 8.48895 4.47618 8.64003L3.00906 13.6688C2.9855 13.7496 2.99705 13.8045 3.01559 13.8434C3.03677 13.888 3.07731 13.9314 3.13404 13.9608C3.19077 13.9902 3.24963 13.9983 3.29823 13.9899C3.34076 13.9826 3.39228 13.9603 3.44465 13.8945L5.14504 11.7584C5.23602 12.147 5.36821 12.5198 5.53677 12.8719L4.22705 14.5173C3.37336 15.5898 1.66517 14.7047 2.04908 13.3888L3.32947 9H1.7456C1.24378 9 0.883528 8.51673 1.02684 8.03581L2.91056 1.71442ZM15 10.5C15 12.9853 12.9853 15 10.5 15C8.01472 15 6 12.9853 6 10.5C6 8.01472 8.01472 6 10.5 6C12.9853 6 15 8.01472 15 10.5ZM12.1464 8.64645L9.5 11.2929L8.85355 10.6464C8.65829 10.4512 8.34171 10.4512 8.14645 10.6464C7.95118 10.8417 7.95118 11.1583 8.14645 11.3536L9.14645 12.3536C9.34171 12.5488 9.65829 12.5488 9.85355 12.3536L12.8536 9.35355C13.0488 9.15829 13.0488 8.84171 12.8536 8.64645C12.6583 8.45118 12.3417 8.45118 12.1464 8.64645Z" fill="#212121"/>
</svg>

<svg viewBox="0 0 16 16" fill="none" xmlns="http://www.w3.org/2000/svg" height="1em" width="1em">
  <path d="M2.91 1.714A1 1 0 0 1 3.87 1h4.406a1 1 0 0 1 .936 1.351L8.218 5h2.03a.8.8 0 0 1 .069.003 5.472 5.472 0 0 0-2.954.979.5.5 0 0 1-.335-.658L8.275 2H3.869L2.08 8h1.915a.5.5 0 0 1 .48.64L3.01 13.669a.235.235 0 0 0 .007.174.264.264 0 0 0 .118.118c.057.03.116.037.164.029a.235.235 0 0 0 .147-.095l1.7-2.137c.091.389.223.762.392 1.114l-1.31 1.645c-.854 1.073-2.562.188-2.178-1.128L3.33 9H1.746a.75.75 0 0 1-.72-.964l1.885-6.322ZM15 10.5a4.5 4.5 0 1 1-9 0 4.5 4.5 0 0 1 9 0Zm-2.854-1.854L9.5 11.293l-.646-.647a.5.5 0 0 0-.708.708l1 1a.5.5 0 0 0 .708 0l3-3a.5.5 0 0 0-.708-.708Z" fill="#212121"/>
</svg>
